images/icons/cc-zero.svg

<svg width="16" height="16" viewBox="0 0 16 16" xmlns="http://www.w3.org/2000/svg"
  aria-hidden="true" focusable="false">
  <g fill-rule="evenodd">
    <rect fill="none" x="0" y="0" width="16" height="16"></rect>
    <path
      d="M7.98325 0C10.2213 0 12.1313 0.77975 13.7032 2.34175C14.4555 3.09425 15.027 3.953 15.4175 4.92425C15.8075 5.8865 16 6.91425 16 8C16 9.09575 15.8075 10.125 15.4172 11.0868C15.0365 12.039 14.467 12.88 13.7142 13.6132C12.933 14.385 12.0495 14.9738 11.059 15.3835C10.0682 15.7933 9.0405 15.9998 7.98325 15.9998C6.92575 15.9998 5.9125 15.8008 4.941 15.4003C3.97875 14.9908 3.11275 14.4032 2.3415 13.641C1.5795 12.87 0.99925 12.0045 0.59925 11.042C0.19925 10.08 0 9.067 0 8C0 6.94275 0.19925 5.92975 0.59925 4.958C1.009 3.97675 1.598 3.09675 2.36975 2.325C3.8935 0.7725 5.764 0 7.98325 0ZM8.01675 1.43975C6.188 1.43975 4.648 2.0795 3.4005 3.35525C2.772 3.99375 2.28675 4.71225 1.944 5.51225C1.61075 6.30275 1.43975 7.13275 1.43975 7.9995C1.43975 8.85675 1.61075 9.6815 1.944 10.4812C2.28675 11.272 2.77175 11.9817 3.4005 12.6102C4.02925 13.2297 4.73875 13.7057 5.5295 14.0392C6.31975 14.363 7.14975 14.5262 8.01675 14.5262C8.874 14.5262 9.6985 14.3612 10.4985 14.0278C11.308 13.6943 12.0355 13.2115 12.6835 12.5825C13.931 11.3635 14.56 9.8385 14.56 8C14.56 7.11425 14.3968 6.27525 14.0728 5.48475C13.749 4.6945 13.2745 3.98625 12.6552 3.367C11.3698 2.08125 9.82625 1.43975 8.01675 1.43975ZM11.3053 8C11.3053 5.88725 10.641 3.395 8 3.395C5.50549 3.395 4.77441 5.61803 4.70088 7.64485L4.6945 8C4.6945 10.113 5.3585 12.605 8 12.605C10.641 12.605 11.3053 10.113 11.3053 8ZM9.3165 6.62175L7.3505 10.0173C7.076 10.429 7.2665 10.6617 7.569 10.7905L7.7035 10.8347C7.795 10.8575 7.8935 10.8687 8.0005 10.8687C9.3585 10.8687 9.423 8.93075 9.423 8L9.41611 7.59101C9.40799 7.3674 9.39099 7.12 9.35677 6.87077L9.3165 6.62175ZM6.57856 7.77759C6.59366 6.79281 6.74213 5.1315 8 5.1315C8.10725 5.1315 8.205 5.148 8.297 5.17075C8.48725 5.33475 8.58025 5.561 8.39775 5.8765L6.63875 9.109L6.61159 8.86531C6.58196 8.54367 6.577 8.23915 6.577 7.99975L6.57856 7.77759Z"
      fill="currentColor" />
  </g>
</svg>

<svg xmlns="http://www.w3.org/2000/svg" width="16" height="16" viewBox="0 0 16 16" aria-hidden="true" focusable="false"><g fill-rule="evenodd"><rect fill="none" stroke="none" x="0" y="0" width="16" height="16"></rect><path fill="currentColor" stroke="none" d="M7.983 0c2.238 0 4.148.78 5.72 2.342a7.662 7.662 0 011.715 2.582c.39.962.582 1.99.582 3.076a8.13 8.13 0 01-.583 3.087 7.262 7.262 0 01-1.703 2.526 8.213 8.213 0 01-2.655 1.77c-.99.41-2.018.617-3.076.617a7.902 7.902 0 01-3.042-.6 8.301 8.301 0 01-2.6-1.759A8.087 8.087 0 01.6 11.042 7.84 7.84 0 010 8c0-1.057.2-2.07.6-3.042a8.12 8.12 0 011.77-2.633C3.893.772 5.764 0 7.983 0zm.034 1.44c-1.829 0-3.369.64-4.616 1.915a6.962 6.962 0 00-1.457 2.157 6.388 6.388 0 000 4.969 6.83 6.83 0 003.585 3.558c.79.324 1.62.487 2.488.487.857 0 1.681-.165 2.482-.498a6.88 6.88 0 002.184-1.446C13.931 11.364 14.56 9.838 14.56 8a6.57 6.57 0 00-.487-2.515 6.418 6.418 0 00-1.418-2.118C11.37 2.081 9.826 1.44 8.017 1.44zM8 3.395c2.641 0 3.305 2.492 3.305 4.605 0 2.113-.664 4.605-3.305 4.605S4.694 10.113 4.694 8l.007-.355c.073-2.027.804-4.25 3.299-4.25zm1.316 3.227L7.35 10.017c-.274.412-.083.645.219.774l.135.044c.091.022.19.034.297.034 1.357 0 1.422-1.938 1.422-2.869l-.007-.409a7.282 7.282 0 00-.06-.72l-.04-.25zM8 5.132c-1.258 0-1.406 1.66-1.421 2.646L6.577 8c0 .24.005.544.035.865l.027.244 1.759-3.232c.182-.316.09-.542-.101-.706A1.222 1.222 0 008 5.13z"></path></g></svg>
